hoodie_driver/public/pac.svg

<svg width="40" height="40" viewBox="0 0 40 40" fill="none" xmlns="http://www.w3.org/2000/svg">
<path d="M2.5 21.2258V36.2258C2.5 37.6058 3.6225 38.7258 5 38.7258H17.5V21.2258H2.5Z" fill="#E0CC1B"/>
<path d="M37.5 11.226H29.59C30.1575 10.8385 30.645 10.4535 30.985 10.1085C33.0025 8.08105 33.0025 4.78105 30.985 2.75355C29.025 0.778546 25.61 0.783546 23.6525 2.75355C22.5675 3.84105 19.6925 8.26855 20.09 11.226H19.91C20.305 8.26855 17.43 3.84105 16.3475 2.75355C14.3875 0.783546 10.9725 0.783546 9.015 2.75355C7 4.78105 7 8.08105 9.0125 10.1085C9.355 10.4535 9.8425 10.8385 10.41 11.226H2.5C1.1225 11.226 0 12.3485 0 13.726V17.476C0 18.166 0.56 18.726 1.25 18.726H17.5V13.726H22.5V18.726H38.75C39.44 18.726 40 18.166 40 17.476V13.726C40 12.3485 38.88 11.226 37.5 11.226ZM17.3525 11.1435C17.3525 11.1435 17.2475 11.226 16.89 11.226C15.1625 11.226 11.865 9.43105 10.7875 8.34605C9.74 7.29105 9.74 5.57105 10.7875 4.51605C11.295 4.00605 11.9675 3.72605 12.6825 3.72605C13.395 3.72605 14.0675 4.00605 14.575 4.51605C16.26 6.21105 17.935 10.541 17.3525 11.1435ZM23.1075 11.226C22.7525 11.226 22.6475 11.146 22.6475 11.1435C22.065 10.541 23.74 6.21105 25.425 4.51605C26.4325 3.49855 28.195 3.49355 29.2125 4.51605C30.2625 5.57105 30.2625 7.29105 29.2125 8.34605C28.135 9.43105 24.8375 11.226 23.1075 11.226Z" fill="#E0CC1B"/>
<path d="M22.5 21.2258V38.7258H35C36.38 38.7258 37.5 37.6058 37.5 36.2258V21.2258H22.5Z" fill="#E0CC1B"/>
</svg>

<svg xmlns="http://www.w3.org/2000/svg" width="40" height="40" fill="#e0cc1b" xmlns:v="https://vecta.io/nano"><path d="M2.5 21.226v15c0 1.38 1.123 2.5 2.5 2.5h12.5v-17.5h-15zm35-10h-7.91c.567-.388 1.055-.773 1.395-1.118a5.23 5.23 0 0 0 0-7.355c-1.96-1.975-5.375-1.97-7.332 0-1.085 1.088-3.96 5.515-3.562 8.472h-.18c.395-2.957-2.48-7.385-3.562-8.472-1.96-1.97-5.375-1.97-7.332 0C7 4.781 7 8.081 9.013 10.109c.343.345.83.73 1.398 1.118H2.5c-1.377 0-2.5 1.122-2.5 2.5v3.75a1.25 1.25 0 0 0 1.25 1.25H17.5v-5h5v5h16.25a1.25 1.25 0 0 0 1.25-1.25v-3.75c0-1.378-1.12-2.5-2.5-2.5zm-20.147-.083s-.105.083-.462.083c-1.728 0-5.025-1.795-6.103-2.88a2.73 2.73 0 0 1 0-3.83c.508-.51 1.18-.79 1.895-.79a2.65 2.65 0 0 1 1.893.79c1.685 1.695 3.36 6.025 2.778 6.627zm5.755.083c-.355 0-.46-.08-.46-.083-.582-.602 1.092-4.932 2.778-6.627a2.73 2.73 0 0 1 3.787 0c1.05 1.055 1.05 2.775 0 3.83-1.077 1.085-4.375 2.88-6.105 2.88zm-.608 10v17.5H35a2.5 2.5 0 0 0 2.5-2.5v-15h-15z"/></svg>
